X: 13
T: Kitty's Rambles
R: jig
M: 6/8
L: 1/8
K: Dmaj
G|FED =cBA|dcd efg|fed =cAF|GAF GFE|
FED =c2A|dcd efg|fed cAG|Adc d2:|
A|dfa dfa|dfa afd|=ceg ceg|=ceg gfe|
fef gfg|afa gfe|fed =cAG|Adc d2:|
e|fgf efe|ded =cAG|FGF EFE|DED GED|
AGA =cAG|dcd efg|fed =cAG|Adc d2:|
f/g/|afd dcd|dfa agf|ge=c cBc|e=ce gfe|
fdf geg|agf efg|fed cAG|Adc d2:|


Tune 1843	Setting 27701

